;FLAVOR:Marlin
;TIME:4029
;Filament used: 2.99879m
;Layer height: 0.28
;MINX:77.05
;MINY:74.45
;MINZ:0.28
;MAXX:142.95
;MAXY:145.55
;MAXZ:7
;Generated with Cura_SteamEngine 4.4.0
M140 S60
M105
M190 S60
M104 S200
M105
M109 S200
M82 ;absolute extrusion mode
M201 X500.00 Y500.00 Z100.00 E5000.00 ;Setup machine max acceleration
M203 X500.00 Y500.00 Z10.00 E50.00 ;Setup machine max feedrate
M204 P500.00 R1000.00 T500.00 ;Setup Print/Retract/Travel acceleration
M205 X8.00 Y8.00 Z0.40 E5.00 ;Setup Jerk
M220 S100 ;Reset Feedrate
M221 S100 ;Reset Flowrate

G28 ;Home

G92 E0 ;Reset Extruder
G1 Z2.0 F3000 ;Move Z Axis up
G1 X10.1 Y20 Z0.28 F5000.0 ;Move to start position
G1 X10.1 Y200.0 Z0.28 F1500.0 E15 ;Draw the first line
G1 X10.4 Y200.0 Z0.28 F5000.0 ;Move to side a little
G1 X10.4 Y20 Z0.28 F1500.0 E30 ;Draw the second line
G92 E0 ;Reset Extruder
G1 Z2.0 F3000 ;Move Z Axis up

G92 E0
G92 E0
G1 F1500 E-6.5
;LAYER_COUNT:25
;LAYER:0
M107
G0 F6000 X80.472 Y75.629 Z0.28
;TYPE:SKIRT
G1 F1500 E0
G1 F600 X80.933 Y75.257 E0.02758
G1 X81.441 Y74.95 E0.05522
G1 X81.984 Y74.714 E0.08279
G1 X82.555 Y74.553 E0.11042
G1 X83.336 Y74.461 E0.14703
G1 X83.656 Y74.452 E0.16194
G1 X83.78 Y74.45 E0.16772
G1 X135.906 Y74.45 E2.59492
G1 X136.604 Y74.46 E2.62743
G1 X137.195 Y74.509 E2.65504
G1 X137.774 Y74.636 E2.68264
G1 X138.331 Y74.84 E2.71026
G1 X138.855 Y75.118 E2.73788
G1 X139.337 Y75.463 E2.76548
G1 X139.769 Y75.87 E2.79312
G1 X140.141 Y76.331 E2.8207
G1 X140.449 Y76.838 E2.84833
G1 X140.685 Y77.382 E2.87594
G1 X140.846 Y77.952 E2.90352
G1 X140.939 Y78.736 E2.94028
G1 X140.948 Y79.056 E2.95519
G1 X140.95 Y79.18 E2.96096
G1 X140.95 Y88.94 E3.41543
G1 X140.989 Y91.722 E3.54498
G1 X141.103 Y94.406 E3.67007
G1 X141.293 Y97.087 E3.79523
G1 X141.565 Y99.823 E3.92325
G1 X141.901 Y102.453 E4.04671
G1 X142.324 Y105.142 E4.17346
G1 X142.849 Y107.962 E4.30703
G1 X142.914 Y108.48 E4.33134
G1 X142.941 Y108.892 E4.35057
G1 X142.95 Y109.18 E4.36398
G1 X142.95 Y140.468 E5.82088
G1 X142.941 Y141.195 E5.85474
G1 X142.893 Y141.787 E5.88239
G1 X142.767 Y142.366 E5.90999
G1 X142.564 Y142.923 E5.93759
G1 X142.288 Y143.448 E5.96521
G1 X141.944 Y143.931 E5.99282
G1 X141.538 Y144.363 E6.02043
G1 X141.077 Y144.736 E6.04804
G1 X140.571 Y145.045 E6.07565
G1 X140.028 Y145.282 E6.10323
G1 X139.457 Y145.445 E6.13088
G1 X138.664 Y145.539 E6.16807
G1 X138.343 Y145.548 E6.18302
G1 X138.22 Y145.55 E6.18875
G1 X82.1 Y145.55 E8.80193
G1 X81.402 Y145.541 E8.83444
G1 X80.811 Y145.493 E8.86205
G1 X80.232 Y145.366 E8.88965
G1 X79.675 Y145.163 E8.91725
G1 X79.15 Y144.887 E8.94487
G1 X78.668 Y144.542 E8.97247
G1 X78.236 Y144.136 E9.00008
G1 X77.862 Y143.675 E9.02772
G1 X77.554 Y143.169 E9.0553
G1 X77.317 Y142.625 E9.08293
G1 X77.155 Y142.055 E9.11053
G1 X77.061 Y141.26 E9.1478
G1 X77.052 Y140.927 E9.16331
G1 X77.05 Y140.808 E9.16886
G1 X77.05 Y109.494 E10.62697
G1 X77.06 Y108.797 E10.65942
G1 X77.134 Y108.058 E10.69401
G1 X77.366 Y106.807 E10.75325
G1 X77.377 Y106.748 E10.75605
G1 X77.445 Y106.405 E10.77233
G1 X77.905 Y103.722 E10.89908
G1 X78.279 Y101.079 E11.02338
G1 X78.586 Y98.369 E11.15038
G1 X78.813 Y95.688 E11.27566
G1 X78.965 Y92.998 E11.40112
G1 X79.05 Y88.922 E11.59096
G1 X79.05 Y79.458 E12.03164
G1 X79.06 Y78.793 E12.06261
G1 X79.109 Y78.202 E12.09022
G1 X79.237 Y77.623 E12.11783
G1 X79.442 Y77.066 E12.14547
G1 X79.719 Y76.542 E12.17307
G1 X80.065 Y76.06 E12.2007
G1 X80.472 Y75.629 E12.2283
G0 F6000 X80.862 Y75.818
G1 F600 X81.316 Y75.482 E12.2546
G1 X81.814 Y75.213 E12.28096
G1 X82.344 Y75.018 E12.30725
G1 X82.897 Y74.899 E12.33359
G1 X83.348 Y74.861 E12.35467
G1 X83.668 Y74.852 E12.36957
G1 X83.78 Y74.85 E12.37479
G1 X135.9 Y74.85 E14.80171
G1 X136.598 Y74.86 E14.83422
G1 X137.162 Y74.908 E14.86058
G1 X137.712 Y75.035 E14.88686
G1 X138.24 Y75.239 E14.91322
G1 X138.734 Y75.514 E14.93955
G1 X139.183 Y75.857 E14.96585
G1 X139.58 Y76.259 E14.99216
G1 X139.917 Y76.714 E15.01853
G1 X140.185 Y77.211 E15.04482
G1 X140.381 Y77.741 E15.07113
G1 X140.501 Y78.294 E15.09748
G1 X140.539 Y78.748 E15.1187
G1 X140.548 Y79.068 E15.1336
G1 X140.55 Y79.18 E15.13882
G1 X140.55 Y88.945 E15.59352
G1 X140.59 Y91.745 E15.72391
G1 X140.703 Y94.415 E15.84835
G1 X140.895 Y97.122 E15.97472
G1 X141.165 Y99.843 E16.10204
G1 X141.508 Y102.529 E16.22813
G1 X141.934 Y105.24 E16.35591
G1 X142.455 Y108.035 E16.4883
G1 X142.514 Y108.506 E16.5104
G1 X142.541 Y108.918 E16.52963
G1 X142.55 Y109.18 E16.54183
G1 X142.55 Y140.464 E17.99855
G1 X142.541 Y141.191 E18.0324
G1 X142.494 Y141.754 E18.05871
G1 X142.368 Y142.305 E18.08503
G1 X142.166 Y142.833 E18.11135
G1 X141.891 Y143.327 E18.13768
G1 X141.549 Y143.777 E18.164
G1 X141.147 Y144.175 E18.19034
G1 X140.694 Y144.512 E18.21663
G1 X140.197 Y144.782 E18.24297
G1 X139.667 Y144.979 E18.2693
G1 X139.115 Y145.1 E18.29561
G1 X138.653 Y145.139 E18.3172
G1 X138.332 Y145.148 E18.33215
G1 X138.22 Y145.15 E18.33737
G1 X82.105 Y145.15 E20.95032
G1 X81.407 Y145.141 E20.98282
G1 X80.844 Y145.093 E21.00913
G1 X80.293 Y144.967 E21.03545
G1 X79.765 Y144.765 E21.06177
G1 X79.271 Y144.49 E21.0881
G1 X78.821 Y144.148 E21.11442
G1 X78.423 Y143.746 E21.14076
G1 X78.087 Y143.292 E21.16706
G1 X77.817 Y142.795 E21.1934
G1 X77.62 Y142.265 E21.21973
G1 X77.5 Y141.713 E21.24603
G1 X77.46 Y141.249 E21.26772
G1 X77.451 Y140.916 E21.28323
G1 X77.45 Y140.808 E21.28826
G1 X77.45 Y109.5 E22.74609
G1 X77.46 Y108.803 E22.77855
G1 X77.527 Y108.131 E22.80999
G1 X77.759 Y106.88 E22.86924
G1 X77.769 Y106.826 E22.8718
G1 X77.838 Y106.479 E22.88827
G1 X78.301 Y103.774 E23.01606
G1 X78.674 Y101.143 E23.13979
G1 X78.983 Y98.412 E23.26777
G1 X79.212 Y95.71 E23.39404
G1 X79.365 Y93 E23.52043
G1 X79.45 Y88.93 E23.70999
G1 X79.45 Y79.464 E24.15076
G1 X79.46 Y78.799 E24.18173
G1 X79.509 Y78.236 E24.20805
G1 X79.636 Y77.685 E24.23438
G1 X79.84 Y77.157 E24.26073
G1 X80.116 Y76.664 E24.28704
G1 X80.459 Y76.215 E24.31335
G1 X80.862 Y75.818 E24.33969
G0 F6000 X80.852 Y76.377
G1 F600 X81.25 Y76.018 E24.36465
G1 X81.696 Y75.721 E24.3896
G1 X82.182 Y75.493 E24.4146
G1 X82.696 Y75.341 E24.43956
G1 X83.359 Y75.26 E24.47066
G1 X83.679 Y75.251 E24.48557
G1 X83.78 Y75.25 E24.49027
G1 X135.895 Y75.25 E26.91696
G1 X136.593 Y75.26 E26.94947
G1 X137.127 Y75.308 E26.97443
G1 X137.648 Y75.434 E26.99939
G1 X138.145 Y75.637 E27.02439
G1 X138.606 Y75.911 E27.04936
G1 X139.021 Y76.25 E27.07431
G1 X139.381 Y76.648 E27.0993
G1 X139.678 Y77.094 E27.12425
G1 X139.906 Y77.58 E27.14925
G1 X140.058 Y78.094 E27.17421
G1 X140.14 Y78.759 E27.20541
G1 X140.149 Y79.079 E27.22031
G1 X140.15 Y79.18 E27.22502
G1 X140.15 Y88.951 E27.68
G1 X140.189 Y91.732 E27.8095
G1 X140.305 Y94.46 E27.93665
G1 X140.499 Y97.189 E28.06404
G1 X140.764 Y99.866 E28.1893
G1 X141.114 Y102.605 E28.31788
G1 X141.534 Y105.276 E28.44378
G1 X142.062 Y108.109 E28.57797
G1 X142.115 Y108.533 E28.59786
G1 X142.142 Y108.945 E28.61709
G1 X142.15 Y109.18 E28.62804
G1 X142.15 Y140.459 E30.08452
G1 X142.141 Y141.186 E30.11838
G1 X142.094 Y141.72 E30.14334
G1 X141.969 Y142.241 E30.16829
G1 X141.767 Y142.738 E30.19327
G1 X141.494 Y143.2 E30.21825
G1 X141.156 Y143.616 E30.24321
G1 X140.759 Y143.977 E30.2682
G1 X140.313 Y144.275 E30.29318
G1 X139.828 Y144.503 E30.31813
G1 X139.314 Y144.657 E30.34311
G1 X138.642 Y144.74 E30.37464
G1 X138.321 Y144.749 E30.3896
G1 X138.22 Y144.75 E30.3943
G1 X82.111 Y144.75 E33.00697
G1 X81.413 Y144.741 E33.03947
G1 X80.878 Y144.694 E33.06448
G1 X80.357 Y144.568 E33.08944
G1 X79.86 Y144.366 E33.11442
G1 X79.399 Y144.093 E33.13937
G1 X78.983 Y143.754 E33.16436
G1 X78.622 Y143.358 E33.18931
G1 X78.324 Y142.912 E33.21429
G1 X78.096 Y142.426 E33.23928
G1 X77.943 Y141.912 E33.26426
G1 X77.86 Y141.238 E33.29588
G1 X77.851 Y140.905 E33.31139
G1 X77.85 Y140.808 E33.3159
G1 X77.85 Y109.505 E34.7735
G1 X77.86 Y108.808 E34.80596
G1 X77.92 Y108.204 E34.83423
G1 X78.152 Y106.953 E34.89347
G1 X78.162 Y106.905 E34.89575
G1 X78.232 Y106.553 E34.91247
G1 X78.692 Y103.866 E35.0394
G1 X79.074 Y101.173 E35.16606
G1 X79.381 Y98.455 E35.29342
G1 X79.612 Y95.731 E35.42072
G1 X79.764 Y93.031 E35.54664
G1 X79.85 Y88.939 E35.73722
G1 X79.85 Y79.47 E36.17814
G1 X79.86 Y78.805 E36.20911
G1 X79.908 Y78.271 E36.23407
G1 X80.035 Y77.75 E36.25904
G1 X80.238 Y77.253 E36.28404
G1 X80.512 Y76.792 E36.30901
G1 X80.852 Y76.377 E36.334
G0 F6000 X81.244 Y76.551
G1 F600 X81.635 Y76.23 E36.35755
G1 X82.072 Y75.976 E36.38109
G1 X82.543 Y75.793 E36.40462
G1 X83.038 Y75.687 E36.42819
G1 X83.37 Y75.66 E36.4437
G1 X83.69 Y75.651 E36.45861
G1 X83.78 Y75.65 E36.4628
G1 X135.889 Y75.65 E38.88921
G1 X136.587 Y75.66 E38.92171
G1 X137.09 Y75.707 E38.94524
G1 X137.58 Y75.833 E38.9688
G1 X138.044 Y76.035 E38.99236
G1 X138.47 Y76.307 E39.0159
G1 X138.848 Y76.642 E39.03942
G1 X139.168 Y77.033 E39.06294
G1 X139.423 Y77.47 E39.0865
G1 X139.606 Y77.941 E39.11003
G1 X139.713 Y78.435 E39.13357
G1 X139.74 Y78.77 E39.14922
G1 X139.749 Y79.09 E39.16412
G1 X139.75 Y79.18 E39.16831
G1 X139.75 Y88.957 E39.62357
G1 X139.79 Y91.754 E39.75383
G1 X139.905 Y94.471 E39.88045
G1 X140.1 Y97.217 E40.00864
G1 X140.368 Y99.923 E40.13526
G1 X140.716 Y102.646 E40.26309
G1 X141.139 Y105.34 E40.39007
G1 X141.669 Y108.182 E40.52468
G1 X141.716 Y108.559 E40.54237
G1 X141.743 Y108.971 E40.5616
G1 X141.75 Y109.18 E40.57134
G1 X141.75 Y140.454 E42.02759
G1 X141.741 Y141.181 E42.06144
G1 X141.695 Y141.684 E42.08496
G1 X141.57 Y142.174 E42.10851
G1 X141.369 Y142.638 E42.13205
G1 X141.098 Y143.065 E42.1556
G1 X140.763 Y143.444 E42.17916
G1 X140.373 Y143.765 E42.20268
G1 X139.937 Y144.021 E42.22622
G1 X139.466 Y144.204 E42.24975
G1 X138.972 Y144.312 E42.27329
G1 X138.631 Y144.34 E42.28923
G1 X138.31 Y144.349 E42.30418
G1 X138.22 Y144.35 E42.30837
G1 X82.116 Y144.35 E44.92081
G1 X81.418 Y144.341 E44.95331
G1 X80.914 Y144.294 E44.97688
G1 X80.424 Y144.169 E45.00043
G1 X79.96 Y143.968 E45.02397
G1 X79.534 Y143.697 E45.04748
G1 X79.155 Y143.362 E45.07104
G1 X78.834 Y142.971 E45.09459
G1 X78.579 Y142.535 E45.11811
G1 X78.395 Y142.064 E45.14166
G1 X78.288 Y141.57 E45.1652
G1 X78.26 Y141.227 E45.18122
G1 X78.251 Y140.894 E45.19673
G1 X78.25 Y140.808 E45.20074
G1 X78.25 Y109.511 E46.65806
G1 X78.26 Y108.814 E46.69051
G1 X78.314 Y108.277 E46.71565
G1 X78.546 Y107.026 E46.77489
G1 X78.554 Y106.983 E46.77693
G1 X78.625 Y106.627 E46.79383
G1 X79.089 Y103.918 E46.92181
G1 X79.468 Y101.237 E47.04789
G1 X79.779 Y98.497 E47.1763
G1 X80.011 Y95.754 E47.30448
G1 X80.164 Y93.033 E47.43138
G1 X80.25 Y88.966 E47.6208
G1 X80.25 Y79.476 E48.06269
G1 X80.26 Y78.811 E48.09366
G1 X80.308 Y78.308 E48.11719
G1 X80.434 Y77.818 E48.14075
G1 X80.636 Y77.354 E48.16431
G1 X80.908 Y76.928 E48.18785
G1 X81.244 Y76.551 E48.21136
G1 F1500 E41.71136
;MESH:relay-footprint.stl
G0 F6000 X81.864 Y108.185
G0 X81.864 Y109.264
G0 X82.05 Y140.55
;TYPE:WALL-INNER
G1 F1500 E48.21136
G1 F600 X82.05 Y109.45 E49.65951
G1 X137.95 Y109.45 E52.26245
G1 X137.95 Y140.55 E53.71059
G1 X82.05 Y140.55 E56.31353
G0 F6000 X81.65 Y140.95
;TYPE:WALL-OUTER
G1 F600 X81.65 Y109.05 E57.79893
G1 X138.35 Y109.05 E60.43912
G1 X138.35 Y140.95 E61.92451
G1 X81.65 Y140.95 E64.5647
G0 F6000 X81.92 Y140.68
G0 X82.16 Y140.16
G0 X82.44 Y140.16
;TYPE:SKIN
G1 F600 X82.44 Y109.84 E65.97653
G1 X137.56 Y109.84 E68.54315
G1 X137.56 Y140.16 E69.95497
G1 X82.44 Y140.16 E72.52159
G0 F6000 X82.864 Y139.998
G1 F600 X82.599 Y139.734 E72.53901
G0 F6000 X82.599 Y139.168
G1 F600 X83.43 Y139.998 E72.5937
G0 F6000 X83.995 Y139.998
G1 F600 X82.599 Y138.602 E72.68563
G0 F6000 X82.599 Y138.037
G1 F600 X84.561 Y139.998 E72.8148
G0 F6000 X85.127 Y139.998
G1 F600 X82.599 Y137.471 E72.98124
G0 F6000 X82.599 Y136.905
G1 F600 X85.692 Y139.998 E73.18492
G0 F6000 X86.258 Y139.998
G1 F600 X82.599 Y136.34 E73.42584
G0 F6000 X82.599 Y135.774
G1 F600 X86.824 Y139.998 E73.70403
G0 F6000 X87.389 Y139.998
G1 F600 X82.599 Y135.208 E74.01946
G0 F6000 X82.599 Y134.643
G1 F600 X87.955 Y139.998 E74.37212
G0 F6000 X88.521 Y139.998
G1 F600 X82.599 Y134.077 E74.76207
G0 F6000 X82.599 Y133.511
G1 F600 X89.086 Y139.998 E75.18925
G0 F6000 X89.652 Y139.998
G1 F600 X82.599 Y132.945 E75.6537
G0 F6000 X82.599 Y132.38
G1 F600 X90.218 Y139.998 E76.15539
G0 F6000 X90.784 Y139.998
G1 F600 X82.599 Y131.814 E76.69435
G0 F6000 X82.599 Y131.248
G1 F600 X91.349 Y139.998 E77.27055
G0 F6000 X91.915 Y139.998
G1 F600 X82.599 Y130.683 E77.884
G0 F6000 X82.599 Y130.117
G1 F600 X92.481 Y139.998 E78.53471
G0 F6000 X93.046 Y139.998
G1 F600 X82.599 Y129.551 E79.22266
G0 F6000 X82.599 Y128.986
G1 F600 X93.612 Y139.998 E79.94785
G0 F6000 X94.178 Y139.998
G1 F600 X82.599 Y128.42 E80.71032
G0 F6000 X82.599 Y127.854
G1 F600 X94.743 Y139.998 E81.51002
G0 F6000 X95.309 Y139.998
G1 F600 X82.599 Y127.289 E82.34696
G0 F6000 X82.599 Y126.723
G1 F600 X95.875 Y139.998 E83.22118
G0 F6000 X96.44 Y139.998
G1 F600 X82.599 Y126.157 E84.13263
G0 F6000 X82.599 Y125.592
G1 F600 X97.006 Y139.998 E85.08132
G0 F6000 X97.572 Y139.998
G1 F600 X82.599 Y125.026 E86.06729
G0 F6000 X82.599 Y124.46
G1 F600 X98.137 Y139.998 E87.09049
G0 F6000 X98.703 Y139.998
G1 F600 X82.599 Y123.895 E88.15094
G0 F6000 X82.599 Y123.329
G1 F600 X99.269 Y139.998 E89.24865
G0 F6000 X99.834 Y139.998
G1 F600 X82.599 Y122.763 E90.38361
G0 F6000 X82.599 Y122.197
G1 F600 X100.4 Y139.998 E91.55583
G0 F6000 X100.966 Y139.998
G1 F600 X82.599 Y121.632 E92.7653
G0 F6000 X82.599 Y121.066
G1 F600 X101.532 Y139.998 E94.01203
G0 F6000 X102.097 Y139.998
G1 F600 X82.599 Y120.5 E95.29601
G0 F6000 X82.599 Y119.935
G1 F600 X102.663 Y139.998 E96.61723
G0 F6000 X103.229 Y139.998
G1 F600 X82.599 Y119.369 E97.97571
G0 F6000 X82.599 Y118.803
G1 F600 X103.794 Y139.998 E99.37144
G0 F6000 X104.36 Y139.998
G1 F600 X82.599 Y118.238 E100.80441
G0 F6000 X82.599 Y117.672
G1 F600 X104.926 Y139.998 E102.27465
G0 F6000 X105.491 Y139.998
G1 F600 X82.599 Y117.106 E103.78212
G0 F6000 X82.599 Y116.541
G1 F600 X106.057 Y139.998 E105.32684
G0 F6000 X106.623 Y139.998
G1 F600 X82.599 Y115.975 E106.90883
G0 F6000 X82.599 Y115.409
G1 F600 X107.188 Y139.998 E108.52806
G0 F6000 X107.754 Y139.998
G1 F600 X82.599 Y114.844 E110.18452
G0 F6000 X82.599 Y114.278
G1 F600 X108.32 Y139.998 E111.87826
G0 F6000 X108.885 Y139.998
G1 F600 X82.599 Y113.712 E113.60924
G0 F6000 X82.599 Y113.146
G1 F600 X109.451 Y139.998 E115.37749
G0 F6000 X110.017 Y139.998
G1 F600 X82.599 Y112.581 E117.18298
G0 F6000 X82.599 Y112.015
G1 F600 X110.583 Y139.998 E119.02574
G0 F6000 X111.148 Y139.998
G1 F600 X82.599 Y111.449 E120.90574
G0 F6000 X82.599 Y110.884
G1 F600 X111.714 Y139.998 E122.82298
G0 F6000 X112.28 Y139.998
G1 F600 X82.599 Y110.318 E124.77749
G0 F6000 X82.846 Y109.999
G1 F600 X112.845 Y139.998 E126.75298
G0 F6000 X113.411 Y139.998
G1 F600 X83.412 Y109.999 E128.72846
G0 F6000 X83.978 Y109.999
G1 F600 X113.977 Y139.998 E130.70395
G0 F6000 X114.542 Y139.998
G1 F600 X84.543 Y109.999 E132.67943
G0 F6000 X85.109 Y109.999
G1 F600 X115.108 Y139.998 E134.65492
G0 F6000 X115.674 Y139.998
G1 F600 X85.675 Y109.999 E136.6304
G0 F6000 X86.24 Y109.999
G1 F600 X116.239 Y139.998 E138.60589
G0 F6000 X116.805 Y139.998
G1 F600 X86.806 Y109.999 E140.58137
G0 F6000 X87.372 Y109.999
G1 F600 X117.371 Y139.998 E142.55686
G0 F6000 X117.936 Y139.998
G1 F600 X87.937 Y109.999 E144.53234
G0 F6000 X88.503 Y109.999
G1 F600 X118.502 Y139.998 E146.50783
G0 F6000 X119.068 Y139.998
G1 F600 X89.069 Y109.999 E148.48332
G0 F6000 X89.634 Y109.999
G1 F600 X119.633 Y139.998 E150.4588
G0 F6000 X120.199 Y139.998
G1 F600 X90.2 Y109.999 E152.43429
G0 F6000 X90.766 Y109.999
G1 F600 X120.765 Y139.998 E154.40977
G0 F6000 X121.331 Y139.998
G1 F600 X91.332 Y109.999 E156.38526
G0 F6000 X91.897 Y109.999
